!!!OTL: Die Entfuehrung.
!!!OTL-incipit: AUF SCHAETZELEIN MACH AUF
!!!ARE: Europa, Mitteleuropa, Deutschland, Nord - Deutschland
!!!SCT: Z1174
!!!TXL: @@DE
!!!YEM: Copyright 1995, estate of Helmut Schaffrath.
**kern	**text
*ICvox	*
*M3/4	*
*k[f#]	*
*G:	*
=1	=1
!LO:TX:a:t=Aus Norddeutſchland.	!
{2.g	Auf,
=2	=2
(2a	auf,
8eeqq	.
4dd)	.
=3	=3
2.dd}	auf!
=4	=4
{8b	Schätʒe-
8cc	.
4dd	-lein,
4a	mach'
=5	=5
2g	auf!
4r}	.
=6	=6
{8dd	thu'
8cc	mir
4b	auf
4dd	und
=7	=7
8eeL	laß
8ddJ	.
8ccL	mich
8bJ	.
4cc}	ein,
=8	=8
{8cc	ich
8b	will
4a	bei
8dd	mei-
8dd	-nem
=9	=9
4.b	Schätʒchen
8cc	.
4b}	ſeyn!
=10	=10
{2.g	Still,
=11	=11
2a	ſtil-
4ee	-le,
8ddqq	.
=12	=12
2.dd}	ſtill!
=13	=13
{8b	re-
8cc	-de
4dd	nit
4a	ʒu
=14	=14
2g	viel!
4r}	.
=15	=15
{8dd	mei-
8cc	-ne
4b	Mut-
4dd	-ter
=16	=16
8eeL	ſchläft
8ddJ	.
8ccL	all-
8bJ	.
4cc}	-hier
=17	=17
{8cc	und
8b	der
4a	Hund
4dd	liegt
=18	=18
8ccqq	.
4.b	vor
8cc	der
4b}	Thür.
=19	=19
{2.g	Still,
=20	=20
2a	ſtil-
8.eeL	-le,
16ddJ	.
=21	=21
2.dd}	ſtill!
=22	=22
{8b	re-
8cc	-de
4dd	nit
4a	ʒu
=23	=23
2.g}	viel!
==	==
!!!AGN: Liebes - Lied
!!!ONB: ESAC (Essen Associative Code) Database: ZUCCAL
!!!AMT: simple triple
!!!AIN: vox
!!!EED: Helmut Schaffrath
!!!EEV: 1.0
!!!GTL: V. Lieder der Minne.
!!!URL-scan: https://www.digitale-sammlungen.de/de/view/bsb11160573?page=365
!!!ENC: Anna Maria Matuszewska
!!!EEV: 2025/02/05
*-	*-
